assets/acala/logo.svg

<svg width="64" height="64" viewBox="0 0 64 64" fill="none" xmlns="http://www.w3.org/2000/svg">
<rect width="64" height="64" fill="white"/>
<path fill-rule="evenodd" clip-rule="evenodd" d="M32 64C49.6731 64 64 49.6731 64 32C64 14.3269 49.6731 0 32 0C14.3269 0 0 14.3269 0 32C0 49.6731 14.3269 64 32 64ZM32.1306 60.9959C48.1446 60.9959 61.1265 48.014 61.1265 32C61.1265 15.986 48.1446 3.00408 32.1306 3.00408C16.1166 3.00408 3.13469 15.986 3.13469 32C3.13469 48.014 16.1166 60.9959 32.1306 60.9959ZM32 58.7755C46.7877 58.7755 58.7755 46.7877 58.7755 32C58.7755 17.2123 46.7877 5.22449 32 5.22449C17.2123 5.22449 5.22449 17.2123 5.22449 32C5.22449 46.7877 17.2123 58.7755 32 58.7755ZM32.0653 55.5102C45.0856 55.5102 55.6408 44.955 55.6408 31.9347C55.6408 18.9144 45.0856 8.35918 32.0653 8.35918C19.045 8.35918 8.4898 18.9144 8.4898 31.9347C8.4898 44.955 19.045 55.5102 32.0653 55.5102ZM30.7348 12.8867L47.8025 42.496L49.6327 39.3208L34.3952 12.8867H30.7348V12.8867ZM14.3673 39.2674L28.9753 13.9252L29.0055 13.9775L29.0342 13.9276L46.3455 43.9595H42.6851L38.3117 36.3725C36.3244 35.7443 34.2087 35.4055 32.0136 35.4055C30.8821 35.4055 29.7779 35.4845 28.7044 35.6421L30.8125 31.9907C31.2104 31.9713 31.6109 31.9615 32.0136 31.9615C33.3546 31.9615 34.6701 32.07 35.9521 32.2789L29.0041 20.2254L16.1976 42.4424L14.3673 39.2674ZM24.2984 38.8822L30.8625 27.4947L29.0324 24.3196L17.7114 43.9594H21.3718L21.4066 43.899C24.5461 42.0088 28.1486 41.0534 32.0824 41.0534C34.5943 41.0534 37.0026 41.4971 39.233 42.3105L36.7808 38.063C35.233 37.7606 33.6595 37.6088 32.0824 37.6095C29.3602 37.6095 26.7423 38.0569 24.2984 38.8822Z" fill="url(#gradient_0)"/>
<defs>
<linearGradient id="gradient_0" x1="60.4082" y1="64" x2="13.1918" y2="5.68163" gradientUnits="userSpaceOnUse">
<stop stop-color="#5A81FF"/>
<stop offset="0.524" stop-color="#E40C5B"/>
<stop offset="1" stop-color="#FF4C3B"/>
</linearGradient>
</defs>
</svg>

<svg width="64" height="64" fill="none" xmlns="http://www.w3.org/2000/svg">
    <defs>
        <linearGradient id="a" x1="60.408" y1="64" x2="13.192" y2="5.682" gradientUnits="userSpaceOnUse">
            <stop stop-color="#5A81FF" offset="0"/>
            <stop stop-color="#E40C5B" offset=".524"/>
            <stop stop-color="#FF4C3B" offset="1"/>
        </linearGradient>
    </defs>
    <path fill="#fff" d="M0 0h64v64H0z"/>
    <path fill="url(#a)" fill-rule="evenodd" clip-rule="evenodd" d="M32 64c17.673 0 32-14.327 32-32C64 14.327 49.673 0 32 0 14.327 0 0 14.327 0 32c0 17.673 14.327 32 32 32zm.13-3.004c16.015 0 28.996-12.982 28.996-28.996S48.145 3.004 32.132 3.004C16.117 3.004 3.135 15.986 3.135 32S16.117 60.996 32.13 60.996zm-.13-2.22c14.788 0 26.776-11.988 26.776-26.776S46.788 5.224 32 5.224 5.224 17.212 5.224 32 17.212 58.776 32 58.776zm.065-3.266c13.02 0 23.576-10.555 23.576-23.575S45.086 8.359 32.065 8.359C19.045 8.36 8.49 18.914 8.49 31.935c0 13.02 10.555 23.575 23.575 23.575zm-1.33-42.623l17.068 29.609 1.83-3.175-15.238-26.434h-3.66zm-16.368 26.38l14.608-25.342.03.052.03-.05 17.31 30.032h-3.66l-4.373-7.587a20.862 20.862 0 00-6.298-.966c-1.132 0-2.236.078-3.31.236l2.108-3.651a24.665 24.665 0 015.14.288l-6.948-12.054-12.806 22.217-1.83-3.175zm9.931-.385l6.565-11.387-1.83-3.175L17.71 43.96h3.66l.036-.061c3.14-1.89 6.742-2.846 10.675-2.846 2.512 0 4.92.444 7.151 1.258l-2.452-4.248a24.446 24.446 0 00-4.699-.454c-2.722 0-5.34.448-7.784 1.273z"/>
</svg>
